X:1
T:The Heathen Perish, LM
T:The Heathen Perish, LM
T:Anonymous, 1864
T:Public Domain Courtesy of the Cyber Hymnal™
C:Anonymous, 1864
Z:Public Domain
Z:Courtesy of the Cyber Hymnal™
%%score 1 ( 2 3 ) 4
L:1/8
Q:1/4=110
M:6/4
K:Eb
V:1 treble 
V:2 treble 
V:3 treble 
V:4 bass 
V:1
 G4 | B2 E2 F2 G2 A2 B2 | B4 d4 | c2 B2 B2 B2 B2 =A2 | B4 G4 | G2 B2 A2 G2 A2 B2 | B4 B4 | %7
 B2 B2 c2 B2 B2 A2 | G4 |] %9
V:2
 [B,E]4 | [EG]2 [EA]2 [DB]2 [EB]2 A2 [EG]2 | [DF]4 [FB]4 | [Fc]2 [Fd]2 [Ee]2 [Fd]2 [Gc]2 c2 | %4
 [DB]4 [EB]4 | [Ge]2 [Gd]2 [Ec]2 [EB]2 A2 [EG]2 | [DF]4 [EB]4 | %7
 [FB]2 [EG]2 [EA]2 [FB]2 [EG]2 [DF]2 | E4 |] %9
V:3
 x4 | x8 (ED) x2 | x8 | x10 (FE) | x8 | x8 (CD) x2 | x8 | x12 | E4 |] %9
V:4
 E,4 | E,2 C,2 B,,2 E,2 F,2 (G,A,) | B,4 B,4 | =A,2 B,2 G,2 F,2 E,2 F,2 | B,,4 E,4 | %5
 C,2 G,2 A,2 E,2 F,2 (G,A,) | B,4 G,4 | D,2 E,2 C,2 D,2 E,2 B,,2 | E,4 |] %9

